X:59
T:Christmas Eve
M:4/4
L:1/8
R:reel
K:G
GE|D3E G3A|B2dB ABGB|ABGE ~D3E|G2BG ABGE|
D3E G3A|B2dB ABGA|BA~A2 GEBG|ABGE G3:|
A|BA (3Bcd edeg|agge g2eg|a2ge gage|dedB ABGA|
BA (3Bcd edeg|agge g2eg|a2ge d2BG|ABGE G2:|
dc|BG~G2 dGBd|eg~g2 egdc|BG~G2 dGBG|EA~A2 EAAc|
BG~G2 dGBd|eggf ~g3a|bgag edBG|ABGE G2:|
